X:1
T:Unity
T:Don Fisco
T:Aldridge's Allemand
M:2/4
L:1/8
R:Hornpipe
B:Elias Howe – Musician’s Omnibus Nos. 6 & 7 (Boston, 1880-1882, p. 605)
B:  http://ks4.imslp.net/files/imglnks/usimg/c/c7/IMSLP601433-PMLP562790-ONeill_Rare_Medium_M40_M8_v6.7_text.pdf
Z:AK/Fiddler’s Companion
K:D
f|e/g/e/c/ df|e/g/e/c/ dA|BABc|d/c/d/e/ df|
e/g/e/c/ df|e/g/e/c/ dA|BABc|d3:|
|:g|f/a/f/d/ f/a/f/d/|g/a/b/g/ eg|f/a/f/d/ f/a/f/d/ |c/d/e/c/ Ag|
f/a/f/d/ f/a/f/d/|g/f/g/a/ bg|f/a/f/d/ e/g/e/c/|d3:|]

